X:1
T:CHINESE BREAKDOWN
L:1/4
M:2/2
I:linebreak $
K:D
V:1 treble nm="Voice" snm="Voice"
V:1
 B/c/ | d A B A | F2 F A/B/ | d A B A | | c A B A | c3/2 d/ c B | A c B A | F3 A/B/ |$ d A B A | %10
 F3/2 G/ F E | D D E F | | e3/2 z f/ e | c3/2 d/ c B | A A B c | d3 ||$ A | d f2 A | d f2 A | %20
 d f e d | | a3/2 b/ a f | g3/2 a/ g f | e ^d e f |$ d f2 A | d f2 A | d f e d | | e3/2 f/ e d | %30
 c3/2 d/ c B | A A B c | d3 |] %33
